X:1
T:Title
%%score { 1 | 2 }
L:1/8
Q:1/4=100
M:6/8
K:A
V:1 treble nm="Grand Piano"
V:2 bass 
V:1
 [CE][CE][CE] [CE][A,C][CE] | [DF]3 [FA]3 | GGG GFG | [CEA]6 | [CE][CE][CE] [CE][A,C][CE] | %5
w: William~J.~Kirkpatrick * * * * *|||||
 [DF]3 [FA]3 | GGG GAB | [CEA]6 | [FA]3 .[Fd]3 | [Fd]3 .[Ec]3 | BBB BAB | [Ec]6 | [DF]3 .[FA]3 | %13
w: ||||||||
 E3 .[CA]3 | BBB BcB | [CA]6 |] %16
w: |||
V:2
 [A,,A,][A,,A,][A,,A,] [A,,A,][A,,E,][A,,A,] | [D,A,]3 [D,D]3 | %2
 [E,B,E][E,B,E][E,B,E] [E,B,E][E,A,E][E,B,E] | [A,,A,]6 | %4
 [A,,A,][A,,A,][A,,A,] [A,,A,][A,,E,][A,,A,] | [D,A,]3 [D,D]3 | %6
 [E,B,E][E,B,E][E,B,E] [E,B,E][E,CE][E,DE] | [A,,A,]6 | [D,A,]3 .[D,A,]3 | [D,A,]3 .[A,,A,]3 | %10
 [E,G,E][E,G,E][E,G,E] [E,G,E][E,F,E][E,G,E] | [A,,A,]6 | [D,A,]3 .[D,A,]3 | [C,A,]3 .[A,,E,A,]3 | %14
 [E,G,D][E,G,D][E,G,D] [E,G,D][E,A,E][E,G,D] | [A,,E,A,]6 |] %16

